X: 502
P: Longways for as many as will
M: 3/4
L: 1/8
K: Dm
|:\
d3 e ^c2 | d2 A2 f2 | e2 f2 d2 | edcB A2 |\
d3 e ^c2 | d2 A2 f2 | e2 f2 d2 | e6 :|
|:\
f2 c2 c2 | AB c2 c2 | d2 G2 G2 | EF G2 G2 |\

